assets/gcpadministration/original.svg

<svg height="24" width="24" xmlns="http://www.w3.org/2000/svg"><path d="m0 0h24v24h-24z" fill="none"/><g fill-rule="evenodd"><path d="m1.5 1.5v21h10.5v-21zm4.5 6h-2.2v-2.3h2.2zm0 3.7h-2.2v-2.2h2.2zm0 3.8h-2.2v-2.2h2.2zm0 3.8h-2.2v-2.2h2.2zm3.8-11.3h-2.3v-2.3h2.2v2.3zm0 3.7h-2.3v-2.2h2.2v2.2zm0 3.8h-2.3v-2.2h2.2v2.2zm0 3.8h-2.3v-2.2h2.2v2.2z" fill="#85a4e6"/><path d="m6.8 1.5v21h5.2v-21zm3 6h-2.3v-2.3h2.2v2.3zm0 3.7h-2.3v-2.2h2.2v2.2zm0 3.8h-2.3v-2.2h2.2v2.2zm0 3.8h-2.3v-2.2h2.2v2.2z" fill="#5c85de"/><path d="m12 10.5v12h10.5v-12zm4.5 4.5h-2.2v-2.2h2.2zm0 3.8h-2.2v-2.2h2.2zm3.7-3.8h-2.2v-2.2h2.2zm0 3.8h-2.2v-2.2h2.2z" fill="#85a4e6"/><path d="m17.2 10.5v12h5.2v-12zm3 4.5h-2.2v-2.2h2.2zm0 3.8h-2.2v-2.2h2.2z" fill="#5c85de"/><path d="m12 8.2h10.5v2.2h-10.5z" fill="#85a4e6"/><path d="m12 10.5h10.5v.8h-10.5z" fill="#5c85de"/><path d="m12 8.2h.8v2.2h-.8zm0 2.3h.8v12h-.8z" fill="#3367d6"/></g></svg>

<svg xmlns="http://www.w3.org/2000/svg" width="24" height="24"><path fill="none" d="M0 0h24v24H0z"/><g fill-rule="evenodd"><path fill="#85a4e6" d="M1.5 1.5v21H12v-21zm4.5 6H3.8V5.2H6zm0 3.7H3.8V9H6zM6 15H3.8v-2.2H6zm0 3.8H3.8v-2.2H6zM9.8 7.5H7.5V5.2h2.2v2.3zm0 3.7H7.5V9h2.2v2.2zm0 3.8H7.5v-2.2h2.2V15zm0 3.8H7.5v-2.2h2.2v2.2z"/><path fill="#5c85de" d="M6.8 1.5v21H12v-21zm3 6H7.5V5.2h2.2v2.3zm0 3.7H7.5V9h2.2v2.2zm0 3.8H7.5v-2.2h2.2V15zm0 3.8H7.5v-2.2h2.2v2.2z"/><path fill="#85a4e6" d="M12 10.5v12h10.5v-12zm4.5 4.5h-2.2v-2.2h2.2zm0 3.8h-2.2v-2.2h2.2zm3.7-3.8H18v-2.2h2.2zm0 3.8H18v-2.2h2.2z"/><path fill="#5c85de" d="M17.2 10.5v12h5.2v-12zm3 4.5H18v-2.2h2.2zm0 3.8H18v-2.2h2.2z"/><path fill="#85a4e6" d="M12 8.2h10.5v2.2H12z"/><path fill="#5c85de" d="M12 10.5h10.5v.8H12z"/><path fill="#3367d6" d="M12 8.2h.8v2.2H12zm0 2.3h.8v12H12z"/></g></svg>
